build/img/green-roofs.svg

<svg width="60" height="60" viewBox="0 0 60 60" fill="#686868" xmlns="http://www.w3.org/2000/svg">
<path d="M53.6944 15.9369C54.3141 15.9369 54.943 15.7928 55.5294 15.4884C57.1893 14.6272 59.4561 10.4682 59.8938 9.64336C60.1973 9.07101 59.8173 8.35219 59.1721 8.27308C58.2399 8.15883 53.5062 7.63277 51.8461 8.49398C50.9051 8.9823 50.2119 9.80508 49.8943 10.8109C49.5849 11.7909 49.6692 12.83 50.1288 13.747L47.5662 15.9273V10.7782C49.3027 10.3555 50.595 8.79808 50.595 6.94594C50.595 5.08664 47.9322 1.1659 47.3985 0.398672C47.0286 -0.132891 46.2107 -0.132891 45.8409 0.398672C45.3072 1.1659 42.6443 5.08664 42.6443 6.94594C42.6443 8.79808 43.9368 10.3554 45.6731 10.7782V17.0306H41.5716C41.0487 17.0306 40.625 17.4513 40.625 17.9702V22.7189L31.4186 15.6889C30.2633 14.8066 28.6496 14.8065 27.4942 15.6888L10.881 28.3745C10.4666 28.6909 10.3892 29.2807 10.7078 29.6921C11.0265 30.1036 11.6207 30.1803 12.0352 29.8641L28.6488 17.1782C29.1245 16.8149 29.7888 16.8149 30.2646 17.1782L40.9948 25.3717C41.6057 25.8378 42.5184 25.3904 42.5184 24.6269V18.9097H50.7214V32.3362C50.7214 32.628 50.8579 32.9031 51.0908 33.081L56.5144 37.2224C57.0936 37.6646 57.2022 38.492 56.7569 39.0669C56.3164 39.6351 55.4718 39.7453 54.8986 39.3075L30.0338 20.3209C29.6934 20.0612 29.2197 20.0612 28.8796 20.3209L4.01476 39.3074C3.44185 39.7446 2.59682 39.6349 2.15648 39.0667C1.71579 38.4982 1.82676 37.6591 2.39897 37.2221L8.57409 32.5068C8.98846 32.1903 9.0659 31.6005 8.74727 31.1891C8.42853 30.7778 7.83425 30.7008 7.41989 31.0172L1.24476 35.7326C-0.14508 36.7938 -0.414123 38.8312 0.656029 40.2123C1.73787 41.6085 3.76224 41.8706 5.16885 40.7967L29.4565 22.251L53.7441 40.7967C55.1369 41.86 57.1873 41.5928 58.2571 40.2123C59.339 38.816 59.0747 36.8065 57.6684 35.7326L52.6143 31.8734V17.9701C52.6143 17.4512 52.1906 17.0305 51.6677 17.0305H49.1784L51.3518 15.1812C52.0326 15.6708 52.8549 15.9369 53.6944 15.9369ZM51.7008 11.373C51.8671 10.8462 52.2303 10.4152 52.7233 10.1593C53.085 9.9716 53.979 9.89144 55.0771 9.89144C55.8342 9.89144 56.6885 9.92953 57.5316 9.99668C56.4889 11.7743 55.2644 13.5054 54.6524 13.8228C54.0771 14.1216 53.4241 14.1254 52.8691 13.8902L54.303 12.6701C54.6999 12.3323 54.7459 11.7393 54.4056 11.3453C54.0656 10.9515 53.4681 10.9056 53.071 11.2434L51.6577 12.4459C51.5772 12.0942 51.5891 11.7265 51.7008 11.373ZM46.6199 6.00633C46.097 6.00633 45.6734 6.42703 45.6734 6.94594V8.78472C45.0002 8.44183 44.5376 7.74715 44.5376 6.94594C44.5376 6.26144 45.5159 4.38211 46.62 2.64047C47.7242 4.38129 48.7022 6.26039 48.7022 6.94594C48.7022 7.74715 48.2396 8.44183 47.5665 8.78472V6.94594C47.5665 6.42703 47.1428 6.00633 46.6199 6.00633Z"/>
<path d="M29.4566 32.0637C21.6977 32.0637 15.3853 38.3298 15.3853 46.0318C15.3853 53.7339 21.6977 60 29.4566 60C37.2155 60 43.528 53.7339 43.528 46.0318C43.528 38.3298 37.2155 32.0637 29.4566 32.0637ZM29.4565 33.9427C32.2168 33.9428 34.7649 34.8595 36.8096 36.4018L32.8256 40.3566C32.6482 40.5327 32.5484 40.7718 32.5484 41.0209V43.9119L32.1878 45.3444L31.3127 43.6073C31.2391 43.4612 31.1281 43.3364 30.9911 43.2458L28.2324 41.4202L27.3255 38.7193C27.2312 38.4387 27.0095 38.2186 26.7269 38.1251L24.0302 37.2327L23.1134 35.7157C24.9621 34.5914 27.1344 33.9427 29.4565 33.9427ZM17.2783 46.0318C17.2783 45.4854 17.3156 44.9475 17.3868 44.42L18.029 44.1649L20.6225 47.5977C20.7621 47.7826 20.9658 47.91 21.1941 47.9552L25.9611 48.9016L28.3736 51.2965L27.6374 53.4889L23.6496 56.6558C19.8574 54.6053 17.2783 50.612 17.2783 46.0318ZM29.4566 58.1209C28.114 58.1209 26.8217 57.9035 25.6128 57.5034L29.0382 54.7832C29.1807 54.6701 29.2872 54.5184 29.3449 54.3465L30.3545 51.34C30.4679 51.0023 30.3794 50.6302 30.1259 50.3784L27.0971 47.3719C26.965 47.2407 26.7968 47.1512 26.6133 47.1149L21.9199 46.1831L19.108 42.4615C18.8512 42.1216 18.3966 41.9948 17.9992 42.1529L17.9091 42.1887C18.6224 40.0825 19.9055 38.2338 21.5753 36.8235L22.5871 38.4976C22.7034 38.6899 22.8851 38.8347 23.0995 38.9056L25.6793 39.7591L26.5392 42.32C26.6056 42.5183 26.7369 42.6888 26.9121 42.8047L29.7318 44.6708L31.6386 48.4564C31.8167 48.8101 32.2113 49.0185 32.6062 48.968C32.9883 48.9191 33.3099 48.6354 33.4034 48.2641L34.413 44.2554C34.4316 44.1809 34.4412 44.1043 34.4412 44.0275V41.41L38.2262 37.6528C39.5519 39.0197 40.5572 40.6947 41.1212 42.5573L38.3571 43.1061C37.9824 43.1805 37.6895 43.4713 37.6146 43.8432L36.605 48.8543C36.5558 49.0986 36.6064 49.3523 36.7456 49.5598L38.7648 52.5663C38.7744 52.5809 38.7846 52.595 38.7951 52.6089L39.2491 53.2099C37.0291 56.1871 33.4663 58.1209 29.4566 58.1209ZM38.5385 48.8412L39.3474 44.826L41.5227 44.3941C41.5961 44.9299 41.6349 45.4765 41.6349 46.032C41.635 47.9959 41.1604 49.8517 40.3195 51.4931L38.5385 48.8412Z"/>
</svg>

<svg width="60" height="60" fill="#686868" xmlns="http://www.w3.org/2000/svg"><path d="M53.694 15.937c.62 0 1.249-.144 1.835-.449 1.66-.86 3.927-5.02 4.365-5.845.303-.572-.077-1.29-.722-1.37-.932-.114-5.666-.64-7.326.221a3.928 3.928 0 00-1.952 2.317c-.31.98-.225 2.019.235 2.936l-2.563 2.18v-5.149c1.737-.423 3.029-1.98 3.029-3.832 0-1.86-2.663-5.78-3.197-6.547a.96.96 0 00-1.557 0c-.534.767-3.197 4.688-3.197 6.547 0 1.852 1.293 3.41 3.03 3.832v6.253h-4.102a.943.943 0 00-.947.94v4.748l-9.206-7.03a3.24 3.24 0 00-3.925 0L10.881 28.375a.935.935 0 00-.173 1.317.951.951 0 001.327.172L28.65 17.178a1.334 1.334 0 011.616 0l10.73 8.194c.61.466 1.523.018 1.523-.745V18.91h8.203v13.426c0 .292.137.567.37.745l5.423 4.141c.58.443.688 1.27.243 1.845a1.344 1.344 0 01-1.858.24L30.034 20.321a.952.952 0 00-1.154 0L4.015 39.307a1.344 1.344 0 01-1.859-.24 1.321 1.321 0 01.243-1.845l6.175-4.715a.935.935 0 00.173-1.318.951.951 0 00-1.327-.172l-6.175 4.716c-1.39 1.06-1.66 3.098-.589 4.48a3.238 3.238 0 004.513.584L29.457 22.25l24.287 18.546c1.393 1.063 3.443.796 4.513-.585a3.183 3.183 0 00-.589-4.48l-5.054-3.859V17.97a.943.943 0 00-.946-.94h-2.49l2.174-1.849a4.02 4.02 0 002.342.756zm-1.993-4.564c.166-.527.53-.958 1.022-1.214.362-.187 1.256-.268 2.354-.268.757 0 1.611.039 2.455.106-1.043 1.777-2.268 3.508-2.88 3.826a2.092 2.092 0 01-1.783.067l1.434-1.22a.935.935 0 00.103-1.325.951.951 0 00-1.335-.102l-1.413 1.203c-.08-.352-.069-.72.043-1.073zM46.62 6.006a.943.943 0 00-.947.94v1.839a2.066 2.066 0 01-1.135-1.84c0-.684.978-2.563 2.082-4.305 1.104 1.741 2.082 3.62 2.082 4.306 0 .801-.462 1.496-1.136 1.839v-1.84a.943.943 0 00-.946-.939z"/><path d="M29.457 32.064c-7.76 0-14.072 6.266-14.072 13.968S21.698 60 29.457 60c7.758 0 14.071-6.266 14.071-13.968s-6.313-13.968-14.071-13.968zm0 1.879c2.76 0 5.308.916 7.353 2.459l-3.984 3.955a.936.936 0 00-.278.664v2.89l-.36 1.433-.875-1.737a.942.942 0 00-.322-.361l-2.759-1.826-.906-2.7a.943.943 0 00-.6-.595l-2.696-.892-.917-1.517a12.171 12.171 0 016.343-1.773zM17.277 46.032c0-.547.038-1.084.109-1.612l.642-.255 2.593 3.433c.14.185.344.312.572.357l4.767.947 2.413 2.395-.737 2.192-3.987 3.167c-3.793-2.05-6.372-6.044-6.372-10.624zM29.457 58.12c-1.343 0-2.635-.218-3.844-.618l3.425-2.72a.94.94 0 00.307-.437l1.01-3.006a.935.935 0 00-.23-.962l-3.028-3.006a.947.947 0 00-.484-.257l-4.693-.932-2.812-3.721a.95.95 0 00-1.109-.31l-.09.037a12.126 12.126 0 013.666-5.365l1.012 1.674a.946.946 0 00.512.408l2.58.853.86 2.561a.939.939 0 00.373.485l2.82 1.866 1.907 3.785a.957.957 0 00.967.512.952.952 0 00.797-.704l1.01-4.009a.941.941 0 00.028-.227V41.41l3.785-3.757a12.078 12.078 0 012.895 4.904l-2.764.55a.943.943 0 00-.742.736l-1.01 5.011a.935.935 0 00.14.706l2.02 3.006a.8.8 0 00.03.043l.454.6a12.196 12.196 0 01-9.792 4.912zm9.081-9.28l.81-4.015 2.175-.432c.073.536.112 1.083.112 1.638 0 1.964-.475 3.82-1.316 5.461l-1.78-2.652z"/></svg>
